X: 100356
P: AERIAL QUADRILLE Part 3.
M: 6/8
L: 1/8
K: G
[|\
vD3 DGA | B3- BcB | A3- A^GA | d3- d^cd |\
(b2a) gfe | dGA Bcd | fed cBA | (G2B) G2 ||
K: D
(F/G/) |\
"^*".A |\
.Az .d .^cz .d | .Az .f .=fz .^f | .ez .g .^cz .e | (dcB) (.A2.A) |\
.Az .d .^cz .d | .Az.f .=fz .^f | .ez .g .Bz .^c | d3- d3 "^D.C."|]


